X: 02128
T: TEMPLE MOUNTAIN
C: Bob McQuillen 30 Nov'74
B: Bob's Note Book 1&2 #128
%R: march, polka
Z: 2019 John Chambers <jc:trillian.mit.edu>
M: C
L: 1/8
K: D
FG \
| A2d2 d2A2 | B2A2 A2FG | A2d2 A2F2 | E6 FG |\
| A2d2 d2A2 | B2A2 A2d2 |1 c2d2 e2c2 | d6 :|2 c2d2 e3f | d6 ||
|: de \
| f2d2 d2A2 | B2A2 A2de | f2a2 g2f2 | e6 de |\
| f2a2 a3f | g2f2 e3d |1 c2d2 e2f2 | d6 :|2 e2fg f2e2 | d6 |]
%%begintext align
%% For Mike Beebe and the
%% Merry Company assembled.
%% Qu\'e Pi, your flute was great!)
%%endtext

%%sep 1 1 500

%%sep 1 1 500

